icons/camera/photo.svg

<?xml version="1.0" encoding="UTF-8" standalone="no"?>
<svg
   height="16"
   width="16"
   version="1.1"
   id="svg4"
   sodipodi:docname="photo.svg"
   inkscape:version="1.1 (ce6663b3b7, 2021-05-25)"
   xmlns:inkscape="http://www.inkscape.org/namespaces/inkscape"
   xmlns:sodipodi="http://sodipodi.sourceforge.net/DTD/sodipodi-0.dtd"
   xmlns="http://www.w3.org/2000/svg"
   xmlns:svg="http://www.w3.org/2000/svg">
  <defs
     id="defs8" />
  <sodipodi:namedview
     id="namedview6"
     pagecolor="#ffffff"
     bordercolor="#666666"
     borderopacity="1.0"
     inkscape:pageshadow="2"
     inkscape:pageopacity="0.0"
     inkscape:pagecheckerboard="0"
     showgrid="true"
     inkscape:zoom="28"
     inkscape:cx="4.875"
     inkscape:cy="6.6964286"
     inkscape:window-width="1920"
     inkscape:window-height="1016"
     inkscape:window-x="0"
     inkscape:window-y="27"
     inkscape:window-maximized="1"
     inkscape:current-layer="svg4">
    <inkscape:grid
       type="xygrid"
       id="grid845" />
  </sodipodi:namedview>
  <path
     id="path2"
     style="line-height:normal;font-variant-ligatures:normal;font-variant-position:normal;font-variant-caps:normal;font-variant-numeric:normal;font-variant-alternates:normal;font-feature-settings:normal;text-indent:0;text-align:start;text-decoration-line:none;text-decoration-style:solid;text-decoration-color:#000;text-transform:none;text-orientation:mixed;shape-padding:0;isolation:auto;mix-blend-mode:normal;marker:none;fill:#808080;fill-opacity:1"
     d="M 3 1 L 3 2 L 3 2.0117188 C 2.2280165 2.0281832 1.6002309 2.0880125 1.0625 2.3847656 A 1.88 1.88 0 0 0 0.22460938 3.3828125 C 0.059609375 3.8218125 0 4.343 0 5 L 0 11 C 0 11.658 0.059609375 12.179188 0.22460938 12.617188 C 0.38860938 13.056188 0.6855 13.407234 1.0625 13.615234 C 1.8145 14.031234 2.7361406 13.985 3.9941406 14 L 12.005859 14 C 13.263859 13.986 14.1845 14.030234 14.9375 13.615234 A 1.88 1.88 0 0 0 15.775391 12.617188 C 15.939391 12.179187 16 11.657 16 11 L 16 5 C 16 4.342 15.940391 3.8218125 15.775391 3.3828125 A 1.88 1.88 0 0 0 14.9375 2.3847656 C 14.1845 1.9687656 13.263859 2.015 12.005859 2 L 5 2 L 5 1 L 3 1 z M 4 3 L 5 3 L 12 3 C 13.259 3.015 14.087125 3.0597187 14.453125 3.2617188 C 14.637125 3.3627187 14.742844 3.475375 14.839844 3.734375 C 14.936844 3.994375 15 4.408 15 5 L 15 11 C 15 11.592 14.936844 12.005625 14.839844 12.265625 C 14.741844 12.525625 14.637125 12.637281 14.453125 12.738281 C 14.087125 12.940281 13.259 12.985 12 13 L 4 13 C 2.741 12.985 1.9099219 12.940281 1.5449219 12.738281 C 1.3619219 12.638281 1.2581563 12.525625 1.1601562 12.265625 C 1.0631563 12.005625 1 11.592 1 11 L 1 5 C 1 4.408 1.0631563 3.994375 1.1601562 3.734375 C 1.2581563 3.474375 1.3619219 3.3627188 1.5449219 3.2617188 C 1.9099219 3.0597188 2.74 3.015 4 3 z M 8 4 A 4 4 0 0 0 4 8 A 4 4 0 0 0 8 12 A 4 4 0 0 0 12 8 A 4 4 0 0 0 8 4 z M 13.5 4 A 0.5 0.5 0 0 0 13 4.5 A 0.5 0.5 0 0 0 13.5 5 A 0.5 0.5 0 0 0 14 4.5 A 0.5 0.5 0 0 0 13.5 4 z M 8 5 A 3 3 0 0 1 11 8 A 3 3 0 0 1 8 11 A 3 3 0 0 1 5 8 A 3 3 0 0 1 8 5 z M 7.9160156 6.0039062 A 2 2 0 0 0 6 8 A 2 2 0 0 0 8 10 A 2 2 0 0 0 10 8 A 2 2 0 0 0 8.0996094 6.0058594 A 1 1 0 0 1 9 7 A 1 1 0 0 1 8 8 A 1 1 0 0 1 7 7 A 1 1 0 0 1 7.9160156 6.0039062 z " />
</svg>

<svg height="16" width="16" xmlns="http://www.w3.org/2000/svg">
    <path d="M3 1v1h.994c-1.258.015-2.179-.03-2.931.385a1.88 1.88 0 0 0-.838.998C.06 3.822 0 4.343 0 5v6c0 .658.06 1.179.225 1.617.164.439.461.79.838.998.752.416 1.673.37 2.931.385H12.006c1.258-.014 2.179.03 2.932-.385a1.88 1.88 0 0 0 .838-.998c.164-.438.224-.96.224-1.617V5c0-.658-.06-1.178-.225-1.617a1.88 1.88 0 0 0-.837-.998c-.753-.416-1.674-.37-2.932-.385H5V1zm1 2h8c1.259.015 2.087.06 2.453.262.184.101.29.213.387.472.097.26.16.674.16 1.266v6c0 .592-.063 1.006-.16 1.266-.098.26-.203.371-.387.472-.366.202-1.194.247-2.453.262H4c-1.259-.015-2.09-.06-2.455-.262-.183-.1-.287-.212-.385-.472C1.063 12.006 1 11.592 1 11V5c0-.592.063-1.006.16-1.266.098-.26.202-.371.385-.472C1.91 3.06 2.74 3.015 4 3zm4 1a4 4 0 0 0-4 4 4 4 0 0 0 4 4 4 4 0 0 0 4-4 4 4 0 0 0-4-4zm5.5 0a.5.5 0 0 0-.5.5.5.5 0 0 0 .5.5.5.5 0 0 0 .5-.5.5.5 0 0 0-.5-.5zM8 5a3 3 0 0 1 3 3 3 3 0 0 1-3 3 3 3 0 0 1-3-3 3 3 0 0 1 3-3zm-.084 1.004A2 2 0 0 0 6 8a2 2 0 0 0 2 2 2 2 0 0 0 2-2 2 2 0 0 0-1.9-1.994A1 1 0 0 1 9 7a1 1 0 0 1-1 1 1 1 0 0 1-1-1 1 1 0 0 1 .916-.996z" style="line-height:normal;font-variant-ligatures:normal;font-variant-position:normal;font-variant-caps:normal;font-variant-numeric:normal;font-variant-alternates:normal;font-feature-settings:normal;text-indent:0;text-align:start;text-decoration-line:none;text-decoration-style:solid;text-decoration-color:#000;text-transform:none;text-orientation:mixed;shape-padding:0;isolation:auto;mix-blend-mode:normal;marker:none" color="#000" font-weight="400" font-family="sans-serif" white-space="normal" overflow="visible" fill="gray"/>
</svg>
